X:1
T:Quoniam ipse liberavit me
T:Thomas Stoltzer
T:Source :  Bicinia---Tomus I---Wittemberg---G.Rhau---1545. Editor : André Vierendeels (15/05/17).
T:Notes : Original clefs : G2, C1 Original note values have been halved Editorial accidentals above the staff Square brackets indicate ligatures Dotted brackets indicate black otes Ex : "Tractu Do.invocavit" (?)
T:Quoniam ipse liberavit me
T:©
T:©
C:Thomas Stoltzer
Z:©
%%score [ 1 2 ]
L:1/8
Q:1/4=120
M:2/2
K:F
V:1 treble nm="Soprano 1" snm="S 1"
V:2 treble nm="Soprano 2" snm="S 2"
V:1
 G4 F4 | G4 B4 | c4 BGBc | d2 B4 A2 | BGBc d2 c2 | B2 G2 cBAF | G2 A2 F2 f2- | f2 e2 d3 c | %8
w: Quo- ni-|am ip-|||||||
 BA G4 F2 | G2 G2 B2 G2- | GABc d2 G2 | e3 d cF B2- | B2 A2 B4 | z2 B2 c2 d2- | dcBA G2 B2 | %15
w: |se li- be- *||ra- * * * *|* * vit|me _ _|_ _ _ _ _ _|
 A4 z4 |[M:3/4] B4 A2 | B4 c2 | B4 A2 | G4 F2 | G2 z2 A2 | B4 c2 | B3 A G2 | F4 z2 | %24
w: |de la-|que- *|||o ve-|nan- *|* * ti-|um,|
[M:4/4] z2 c2 d2 e2 | f2 c2 d2 e2 | f2 c3 B AG | FD f4 e2 | d2 c2 B2 A2 | G4 z2 F2 | %30
w: ve- nan- *||||* * * ti-|um, et|
[M:3/4] G3 A B2 | c4 F2 | G3 A BG | A4 F2 | G3 A BG | A3 B cA |[M:4/4] B2 d3 c dB | c2 d2 G3 A | %38
w: a- * ver-|bo as-|||||||
 BABG A2 B2- | BA G4 F2 | G8- | G8 |] %42
w: |* * * pe-|ro.|_|
V:2
 z8 | z4 G4 | F4 G4 | B4 c4 | B2 G2 B2 c2 | d2 B2 A2 c2 | B2 c3 BAG | A2 G3 ABA | B4 A4 | %9
w: |Quo-|ni- am|ip- *||||||
 G4 z2 G2 | B2 G2 B4 | c3 B c2 d2 | c4 z2 B2 | c2 B2 A2 B2 | G2 B3 A G2- | G2 F2 G4 |[M:3/4] z6 | %17
w: se li-|be- ra- *||vit me|_ _ _ _||||
 B4 A2 | B4 c2 | B4 A2 | G4 F2 | G2 z2 A2 | B4 c2- | c2 B2 A2 |[M:4/4] G4 F4 | F2 G2 A3 G | %26
w: de la-|que- *|||o ve-|nan- *|* ti- *|um, _|_ _ _ _|
 AGAB c4 | c2 BA G2 G2 | F4 z2 F2 | G2 B4 A2 |[M:3/4] B6 | A6 | B6 | A6 | B4 A2- | A2 c4 | %36
w: ||* et|a ver- bo|as-||||||
[M:4/4] G3 A BABG | A2 B3 A G2- | GF G2 D2 G2- | GABA BG A2 | B6 G2 | G8 |] %42
w: ||||* pe-|ro.|

